X: 130112
T: Merry Stampmaker 
N: 022
C: BB
R: reel
Q: 1/8=350
M: 4/4
L: 1/8
K: Gdor
"Gm"BGG^F G3 D|"Dm7"CDFG "F"AcAF|\
"Gm"BGG^F GABc|"Bb"dB"F"cA "Gm"BGGA|
"Gm"BGG^F G3 D|"Dm7"CDFG "F"Ac (3c=Bc|\
"Dm"fd"C"ec "Bb"dB"F"cA|"Gm"BcdB AG G2 :|
"F"F2 AF cFAF|"D"^F2 AF dFAF|\
"Gm"BcBA G^FGA|"Bb"dB"F"cA "Gm"BG G2 |
"F"F2 AF cFAF|"D"^F2 AF dFAF|\
"Gm"BGGB "F"cAAc|"Bb"dB"F"cA "Gm"BG G2 :|
[K:D] "D"(3FED AD BDAD|"Bm"dBAF "Em"EDEG|\
"D"(3FED AD BDAD|"G"GB (3B^AB "A7"c=AGE|
"D"(3FED AD BDAD|"Em"(3GFE BE dEBE|\
"D"FADA "G"GB (3B^AB|"A7"cAGE "D"D4 :|
